packages/icons/raw/imported/MediaMegaphone.svg

<svg width="32" height="32" viewBox="0 0 32 32" fill="none" xmlns="http://www.w3.org/2000/svg">
<path d="M8.45631 13.0961L8.67013 13.5481L8.45631 13.0961ZM8.45631 18.9042L8.24249 19.3562H8.24249L8.45631 18.9042ZM20.4058 8.52255L20.1322 8.10402V8.10402L20.4058 8.52255ZM20.4058 23.4778L20.6793 23.0592L20.4058 23.4778ZM9.86682 23.5599L10.3635 23.5024L9.86682 23.5599ZM8 17.3938V14.6065H7V17.3938H8ZM9.17083 13.4356H13.356V12.4356H9.17083V13.4356ZM13.356 18.5647H9.17083V19.5647H13.356V18.5647ZM8.67013 13.5481C8.82666 13.4741 8.99767 13.4356 9.17083 13.4356V12.4356C8.84977 12.4356 8.53271 12.5069 8.24249 12.6442L8.67013 13.5481ZM7 17.3938C7 18.2331 7.48381 18.9972 8.24249 19.3562L8.67013 18.4522C8.26094 18.2586 8 17.8465 8 17.3938H7ZM9.17083 18.5647C8.99767 18.5647 8.82666 18.5263 8.67013 18.4522L8.24249 19.3562C8.53271 19.4935 8.84977 19.5647 9.17083 19.5647V18.5647ZM8 14.6065C8 14.1538 8.26094 13.7417 8.67013 13.5481L8.24249 12.6442C7.48381 13.0031 7 13.7672 7 14.6065H8ZM14.1767 13.1912L20.6793 8.94108L20.1322 8.10402L13.6296 12.3542L14.1767 13.1912ZM23 10.1967V21.8036H24V10.1967H23ZM20.6793 23.0592L14.1767 18.8091L13.6296 19.6461L20.1322 23.8963L20.6793 23.0592ZM23 21.8036C23 22.9955 21.677 23.7113 20.6793 23.0592L20.1322 23.8963C21.795 24.9831 24 23.7901 24 21.8036H23ZM20.6793 8.94108C21.677 8.289 23 9.0048 23 10.1967H24C24 8.21023 21.795 7.01721 20.1322 8.10402L20.6793 8.94108ZM12.5385 19.0647V23.3769H13.5385V19.0647H12.5385ZM10.3635 23.5024L9.84283 19.0072L8.84947 19.1223L9.37014 23.6175L10.3635 23.5024ZM11.4474 24.468C10.8933 24.468 10.4272 24.0527 10.3635 23.5024L9.37014 23.6175C9.49231 24.6722 10.3856 25.468 11.4474 25.468V24.468ZM12.5385 23.3769C12.5385 23.9795 12.05 24.468 11.4474 24.468V25.468C12.6022 25.468 13.5385 24.5317 13.5385 23.3769H12.5385ZM13.356 19.5647C13.4532 19.5647 13.5483 19.593 13.6296 19.6461L14.1767 18.8091C13.9327 18.6496 13.6475 18.5647 13.356 18.5647V19.5647ZM13.356 13.4356C13.6475 13.4356 13.9327 13.3507 14.1767 13.1912L13.6296 12.3542C13.5483 12.4073 13.4532 12.4356 13.356 12.4356V13.4356Z" fill="black"/>
</svg>

<svg width="32" height="32" fill="none" xmlns="http://www.w3.org/2000/svg"><path d="m8.456 13.096.214.452-.214-.452Zm0 5.808-.214.452.214-.452Zm11.95-10.381-.274-.419.274.419Zm0 14.955.273-.419-.273.419Zm-10.54.082.498-.058-.497.058ZM8 17.394v-2.787H7v2.787h1Zm1.17-3.958h4.186v-1H9.171v1Zm4.186 5.129H9.171v1h4.185v-1ZM8.67 13.548c.157-.074.328-.112.5-.112v-1a2.17 2.17 0 0 0-.928.208l.428.904ZM7 17.394c0 .84.484 1.603 1.242 1.962l.428-.904A1.17 1.17 0 0 1 8 17.394H7Zm2.17 1.17a1.17 1.17 0 0 1-.5-.112l-.428.904c.29.137.608.209.929.209v-1ZM8 14.608c0-.453.26-.865.67-1.059l-.428-.904A2.17 2.17 0 0 0 7 14.607h1Zm6.177-1.416 6.502-4.25-.547-.837-6.502 4.25.547.837ZM23 10.197v11.607h1V10.197h-1Zm-2.32 12.862-6.503-4.25-.547.837 6.502 4.25.547-.837ZM23 21.804c0 1.192-1.323 1.907-2.32 1.255l-.548.837C21.795 24.983 24 23.79 24 21.804h-1ZM20.68 8.94c.997-.652 2.32.064 2.32 1.256h1c0-1.987-2.205-3.18-3.868-2.093l.547.837Zm-8.141 10.124v4.312h1v-4.312h-1Zm-2.175 4.437-.521-4.495-.994.115.521 4.495.994-.115Zm1.083.966c-.554 0-1.02-.415-1.083-.966l-.994.116a2.091 2.091 0 0 0 2.077 1.85v-1Zm1.092-1.091c0 .603-.489 1.091-1.092 1.091v1a2.091 2.091 0 0 0 2.092-2.091h-1Zm.817-3.812a.5.5 0 0 1 .274.081l.547-.837a1.5 1.5 0 0 0-.821-.244v1Zm0-6.13a1.5 1.5 0 0 0 .82-.244l-.546-.837a.5.5 0 0 1-.274.082v1Z" fill="#000"/></svg>
